X:958
T:Malbay Shuffle, The
R:reel
C:Diarmuid Moynihan
D:L\'unasa: The Merry Sisters of Fate
Z:id:hn-reel-958
M:C|
L:1/8
K:G
d3G AG~G2 | EG~G2 AGGB | d2cB AG~G2 |1 DEGB AGAB :|2 DEGB AGGA ||
~B3d eg~g2 | egdg eg~g2 | BABd eggd | (3efg dB AGEG |
~B3d eg~g2 | egdg eggd | egdB cABG | DEGB AGAB ||

